images/LOGO2.svg

<svg xmlns="http://www.w3.org/2000/svg" width="189" height="64" viewBox="0 0 189 64">
    <defs>
        <clipPath id="e02gk0r8ha">
            <path data-name="사각형 42733" style="fill:#194893" d="M0 0h189v38H0z"/>
        </clipPath>
    </defs>
    <path data-name="사각형 42811" style="fill:none" d="M0 0h180v64H0z"/>
    <g data-name="그룹 7470">
        <path data-name="패스 8" d="M0 0v37.284h22.77v-6.171H7.29V0z" transform="translate(0 1)" style="fill:#194893"/>
        <path data-name="사각형 42731" transform="translate(100.865 1)" style="fill:#194893" d="M0 0h7.29v37.284H0z"/>
        <g data-name="그룹 7469">
            <g data-name="그룹 7468" transform="translate(0 1)" style="clip-path:url(#e02gk0r8ha)">
                <path data-name="패스 9" d="M460.248 31.6q7.193 0 7.306-6.806V0h-8.541v24.8q-.072 4.328-3.01 5.9a9.045 9.045 0 0 0 4.245.906" transform="translate(-278.711)" style="fill:#194893"/>
                <path data-name="패스 10" d="M417.042 34.314a11.613 11.613 0 0 1-4.323-8.768 12.207 12.207 0 0 1-.039-.956V0h-8.529v24.821a11.784 11.784 0 0 0 4.349 9.493q4.265 3.454 11.514 3.454a25.106 25.106 0 0 0 4.271-.343 15.444 15.444 0 0 1-7.244-3.111" transform="translate(-247.019)" style="fill:#194893"/>
                <path data-name="패스 11" d="M97.407 10.418h-7.094l4.331 12.945h-9.28l4.427-13.379L93 0h-6.566L72.616 37.257h8.133L83.3 29.58h13.41l2.575 7.677h8.133z" transform="translate(-44.383)" style="fill:#194893"/>
                <path data-name="패스 12" d="M190.826 23.852v26.441h7.648V21.379z" transform="translate(-116.634 -13.036)" style="fill:#194893"/>
                <path data-name="패스 13" d="M161.973 0v6.218h11.218v.009h7.648v-.009h11.371V0z" transform="translate(-98.999)" style="fill:#194893"/>
                <path data-name="사각형 42732" transform="translate(140.576)" style="fill:#194893" d="M0 0h7.623v23.163H0z"/>
                <path data-name="패스 14" d="M311.183 0h-7.649v37.257h7.649V12.744l14.889 24.514h7.648l-8.474-14.093z" transform="translate(-185.521)" style="fill:#194893"/>
            </g>
        </g>
    </g>
    <path data-name="패스 20627" d="M1.654-.559h3.862V0H.988v-7.82h.666zM10.3 0a3.04 3.04 0 0 1-.124-.811 2.241 2.241 0 0 1-.862.679 2.64 2.64 0 0 1-1.107.239A1.948 1.948 0 0 1 6.851-.36a1.522 1.522 0 0 1-.518-1.182 1.555 1.555 0 0 1 .706-1.343 3.394 3.394 0 0 1 1.969-.494h1.166v-.661a1.273 1.273 0 0 0-.384-.98 1.587 1.587 0 0 0-1.12-.357 1.753 1.753 0 0 0-1.112.344 1.021 1.021 0 0 0-.44.827l-.645-.005a1.5 1.5 0 0 1 .645-1.2A2.482 2.482 0 0 1 8.7-5.919a2.264 2.264 0 0 1 1.533.486 1.744 1.744 0 0 1 .577 1.356v2.75a3.411 3.411 0 0 0 .177 1.262V0zM8.282-.462a2.158 2.158 0 0 0 1.152-.311 1.833 1.833 0 0 0 .739-.833v-1.278h-1.15a2.88 2.88 0 0 0-1.5.352 1.056 1.056 0 0 0-.542.937 1.039 1.039 0 0 0 .363.811 1.366 1.366 0 0 0 .938.322zM13.524-7.3v1.488h1.2v.526h-1.2v3.877a1.214 1.214 0 0 0 .175.721.677.677 0 0 0 .583.237A4 4 0 0 0 14.8-.5l.027.522a2.1 2.1 0 0 1-.687.09 1.146 1.146 0 0 1-.961-.384 1.808 1.808 0 0 1-.3-1.131v-3.882h-1.068v-.526h1.069V-7.3zM16.779 0h-.645v-5.812h.645zm-.757-7.49a.431.431 0 0 1 .118-.31.421.421 0 0 1 .322-.125.43.43 0 0 1 .325.125.426.426 0 0 1 .121.307.417.417 0 0 1-.121.3.435.435 0 0 1-.325.123.426.426 0 0 1-.322-.123.422.422 0 0 1-.118-.297zm3.115 1.678.021.994a2.308 2.308 0 0 1 .816-.819 2.122 2.122 0 0 1 1.08-.282 1.743 1.743 0 0 1 1.391.526 2.374 2.374 0 0 1 .462 1.579V0h-.639v-3.819a1.775 1.775 0 0 0-.33-1.16A1.294 1.294 0 0 0 20.9-5.36a1.626 1.626 0 0 0-1.055.373 2.187 2.187 0 0 0-.679 1.007V0h-.639v-5.812zM31.7-3.658h-3.647V0h-.661v-7.82h4.845v.559h-4.184v3.045H31.7zm1.262.666a3.42 3.42 0 0 1 .325-1.508 2.477 2.477 0 0 1 .918-1.045 2.474 2.474 0 0 1 1.345-.373 2.391 2.391 0 0 1 1.88.814 3.136 3.136 0 0 1 .72 2.156v.134a3.45 3.45 0 0 1-.324 1.514 2.426 2.426 0 0 1-.916 1.042 2.511 2.511 0 0 1-1.348.365 2.393 2.393 0 0 1-1.877-.814 3.128 3.128 0 0 1-.722-2.156zm.645.177a2.637 2.637 0 0 0 .54 1.711 1.731 1.731 0 0 0 1.415.669 1.726 1.726 0 0 0 1.41-.669 2.724 2.724 0 0 0 .54-1.764v-.124a2.956 2.956 0 0 0-.247-1.219 1.985 1.985 0 0 0-.693-.857 1.77 1.77 0 0 0-1.021-.3 1.717 1.717 0 0 0-1.4.674 2.728 2.728 0 0 0-.542 1.764zm8.556-2.449a2.4 2.4 0 0 0-.435-.038 1.57 1.57 0 0 0-1.018.336 1.839 1.839 0 0 0-.594.975V0h-.639v-5.812h.628l.011.924a1.709 1.709 0 0 1 1.638-1.031 1.057 1.057 0 0 1 .424.07zm9.228-2.556v5.339a2.7 2.7 0 0 1-.349 1.375 2.288 2.288 0 0 1-.969.9 3.16 3.16 0 0 1-1.437.314 2.835 2.835 0 0 1-1.979-.674 2.471 2.471 0 0 1-.771-1.866V-7.82h.655v5.29A2.033 2.033 0 0 0 47.1-1a2.109 2.109 0 0 0 1.531.545A2.094 2.094 0 0 0 50.163-1a2.033 2.033 0 0 0 .561-1.525v-5.3zm1.536 7.433a.455.455 0 0 1 .121-.32.433.433 0 0 1 .336-.132.442.442 0 0 1 .338.132.45.45 0 0 1 .124.32.413.413 0 0 1-.124.309.463.463 0 0 1-.338.121.454.454 0 0 1-.336-.121.418.418 0 0 1-.121-.309zm.011-4.958a.455.455 0 0 1 .121-.32.433.433 0 0 1 .336-.132.442.442 0 0 1 .338.132.45.45 0 0 1 .124.32.413.413 0 0 1-.124.309.463.463 0 0 1-.338.121.454.454 0 0 1-.336-.121.418.418 0 0 1-.121-.308zm9.587 1.687h-3.647V0h-.661v-7.82h4.845v.559h-4.184v3.045h3.647zM67.74 0a3.04 3.04 0 0 1-.124-.811 2.241 2.241 0 0 1-.862.679 2.64 2.64 0 0 1-1.109.239 1.948 1.948 0 0 1-1.356-.467 1.522 1.522 0 0 1-.518-1.182 1.555 1.555 0 0 1 .706-1.343 3.394 3.394 0 0 1 1.969-.494h1.166v-.661a1.273 1.273 0 0 0-.384-.98 1.587 1.587 0 0 0-1.12-.357A1.753 1.753 0 0 0 65-5.033a1.021 1.021 0 0 0-.44.827l-.645-.005a1.5 1.5 0 0 1 .645-1.2 2.482 2.482 0 0 1 1.584-.508 2.264 2.264 0 0 1 1.533.486 1.744 1.744 0 0 1 .577 1.356v2.75a3.411 3.411 0 0 0 .177 1.262V0zm-2.02-.462a2.158 2.158 0 0 0 1.152-.312 1.833 1.833 0 0 0 .739-.833v-1.277h-1.149a2.88 2.88 0 0 0-1.5.352 1.056 1.056 0 0 0-.542.937 1.039 1.039 0 0 0 .363.811 1.366 1.366 0 0 0 .938.322zm7.724-1.015a.916.916 0 0 0-.384-.768A2.962 2.962 0 0 0 71.9-2.7a5.222 5.222 0 0 1-1.2-.376 1.6 1.6 0 0 1-.634-.518 1.293 1.293 0 0 1-.207-.741 1.383 1.383 0 0 1 .575-1.136 2.321 2.321 0 0 1 1.472-.448 2.389 2.389 0 0 1 1.56.481 1.543 1.543 0 0 1 .588 1.254h-.645a1.041 1.041 0 0 0-.427-.849 1.68 1.68 0 0 0-1.077-.338 1.681 1.681 0 0 0-1.018.282.87.87 0 0 0-.384.733.793.793 0 0 0 .32.674 3.38 3.38 0 0 0 1.166.438 5.478 5.478 0 0 1 1.268.424 1.642 1.642 0 0 1 .626.542 1.389 1.389 0 0 1 .2.768A1.392 1.392 0 0 1 73.5-.333a2.536 2.536 0 0 1-1.55.44 2.6 2.6 0 0 1-1.65-.491 1.513 1.513 0 0 1-.631-1.243h.645a1.118 1.118 0 0 0 .475.878 1.943 1.943 0 0 0 1.157.314 1.826 1.826 0 0 0 1.085-.3.887.887 0 0 0 .413-.742zM76.533-7.3v1.488h1.2v.526h-1.2v3.877a1.214 1.214 0 0 0 .175.721.677.677 0 0 0 .583.237 4 4 0 0 0 .52-.049l.027.522a2.1 2.1 0 0 1-.687.09 1.146 1.146 0 0 1-.961-.384 1.808 1.808 0 0 1-.3-1.131v-3.882h-1.071v-.526h1.069V-7.3zm2.4 8.76-.381-.279a2.339 2.339 0 0 0 .5-1.359v-.832h.628v.671a2.313 2.313 0 0 1-.746 1.8zm9.373-5.119h-3.647V0H84v-7.82h4.845v.559h-4.186v3.045h3.647zm4.275-1.606a2.4 2.4 0 0 0-.435-.038 1.57 1.57 0 0 0-1.018.336 1.839 1.839 0 0 0-.594.975V0H89.9v-5.812h.628l.011.924a1.709 1.709 0 0 1 1.638-1.031 1.057 1.057 0 0 1 .424.07zM95.745.107a2.523 2.523 0 0 1-1.34-.365 2.489 2.489 0 0 1-.932-1.018 3.173 3.173 0 0 1-.333-1.464v-.23a3.42 3.42 0 0 1 .325-1.509 2.585 2.585 0 0 1 .905-1.055 2.233 2.233 0 0 1 1.257-.384 2.1 2.1 0 0 1 1.678.722 2.93 2.93 0 0 1 .62 1.974v.36h-4.146v.124a2.433 2.433 0 0 0 .567 1.646 1.8 1.8 0 0 0 1.426.658 2.094 2.094 0 0 0 .91-.188 2.019 2.019 0 0 0 .717-.6l.4.306A2.345 2.345 0 0 1 95.745.107zm-.118-5.479a1.607 1.607 0 0 0-1.222.532 2.456 2.456 0 0 0-.6 1.429h3.486v-.07a2.133 2.133 0 0 0-.478-1.364 1.481 1.481 0 0 0-1.186-.526zm5.8 5.479a2.523 2.523 0 0 1-1.34-.365 2.489 2.489 0 0 1-.932-1.018 3.173 3.173 0 0 1-.333-1.464v-.23a3.42 3.42 0 0 1 .325-1.509 2.585 2.585 0 0 1 .905-1.055 2.233 2.233 0 0 1 1.257-.384 2.1 2.1 0 0 1 1.678.722 2.93 2.93 0 0 1 .62 1.974v.36h-4.145v.124a2.433 2.433 0 0 0 .567 1.646 1.8 1.8 0 0 0 1.426.658 2.094 2.094 0 0 0 .91-.188 2.019 2.019 0 0 0 .717-.6l.4.306a2.345 2.345 0 0 1-2.054 1.023zm-.118-5.479a1.607 1.607 0 0 0-1.222.532 2.456 2.456 0 0 0-.6 1.429h3.486v-.07a2.133 2.133 0 0 0-.478-1.364 1.481 1.481 0 0 0-1.185-.526zm3.416 6.832-.381-.279a2.339 2.339 0 0 0 .5-1.359v-.832h.628v.671a2.313 2.313 0 0 1-.746 1.8zm9.375-5.118h-3.647V0h-.661v-7.82h4.845v.559h-4.184v3.045h3.647zM116.547 0h-.647v-8.25h.645zm4 .107a2.523 2.523 0 0 1-1.34-.365 2.489 2.489 0 0 1-.932-1.018 3.173 3.173 0 0 1-.333-1.464v-.23a3.42 3.42 0 0 1 .325-1.509 2.585 2.585 0 0 1 .905-1.055 2.233 2.233 0 0 1 1.257-.384 2.1 2.1 0 0 1 1.671.718 2.93 2.93 0 0 1 .62 1.974v.36h-4.146v.124a2.433 2.433 0 0 0 .567 1.646 1.8 1.8 0 0 0 1.426.658 2.094 2.094 0 0 0 .91-.188 2.019 2.019 0 0 0 .717-.6l.4.306a2.345 2.345 0 0 1-2.051 1.027zm-.118-5.479a1.607 1.607 0 0 0-1.222.532 2.456 2.456 0 0 0-.6 1.429h3.486v-.07a2.133 2.133 0 0 0-.478-1.364 1.481 1.481 0 0 0-1.19-.526zm5.371 1.918 1.568-2.358h.763L126.16-2.96 128.219 0h-.757l-1.654-2.46L124.153 0h-.753l2.052-2.959-1.971-2.852h.757zM130.045 0h-.645v-5.812h.645zm-.757-7.49a.431.431 0 0 1 .118-.307.421.421 0 0 1 .322-.125.43.43 0 0 1 .325.125.426.426 0 0 1 .121.307.417.417 0 0 1-.121.3.435.435 0 0 1-.325.123.426.426 0 0 1-.322-.123.422.422 0 0 1-.118-.3zm7.181 4.643a3.5 3.5 0 0 1-.6 2.156 1.921 1.921 0 0 1-1.617.8 2.089 2.089 0 0 1-1.837-.9l-.028.791h-.6v-8.25h.639v3.282a2.02 2.02 0 0 1 1.815-.951 1.939 1.939 0 0 1 1.63.787 3.542 3.542 0 0 1 .6 2.189zm-.645-.113a3.027 3.027 0 0 0-.446-1.775 1.453 1.453 0 0 0-1.257-.626 1.769 1.769 0 0 0-1.047.3 1.845 1.845 0 0 0-.65.889v2.621a1.722 1.722 0 0 0 1.708 1.1 1.443 1.443 0 0 0 1.243-.628 3.236 3.236 0 0 0 .449-1.88zM138.606 0h-.645v-8.25h.645zm4 .107a2.523 2.523 0 0 1-1.34-.365 2.489 2.489 0 0 1-.932-1.018A3.173 3.173 0 0 1 140-2.739v-.231a3.42 3.42 0 0 1 .325-1.509 2.585 2.585 0 0 1 .905-1.055 2.233 2.233 0 0 1 1.257-.384 2.1 2.1 0 0 1 1.678.722 2.93 2.93 0 0 1 .62 1.974v.36h-4.146v.124a2.433 2.433 0 0 0 .567 1.646 1.8 1.8 0 0 0 1.426.658 2.094 2.094 0 0 0 .91-.188 2.019 2.019 0 0 0 .717-.6l.4.306A2.345 2.345 0 0 1 142.6.107zm-.118-5.479a1.607 1.607 0 0 0-1.222.532 2.456 2.456 0 0 0-.6 1.429h3.486v-.07a2.133 2.133 0 0 0-.478-1.364 1.481 1.481 0 0 0-1.19-.526zm7.042 4.813h3.862V0h-4.532v-7.82h.666zm7.229.666a2.523 2.523 0 0 1-1.34-.365 2.489 2.489 0 0 1-.932-1.018 3.173 3.173 0 0 1-.333-1.464v-.23a3.42 3.42 0 0 1 .325-1.509 2.585 2.585 0 0 1 .905-1.055 2.233 2.233 0 0 1 1.257-.384 2.1 2.1 0 0 1 1.678.722 2.93 2.93 0 0 1 .62 1.974v.36h-4.149v.124a2.433 2.433 0 0 0 .567 1.646 1.8 1.8 0 0 0 1.426.658 2.094 2.094 0 0 0 .91-.188 2.019 2.019 0 0 0 .717-.6l.4.306a2.345 2.345 0 0 1-2.055 1.023zm-.118-5.479a1.607 1.607 0 0 0-1.222.532 2.456 2.456 0 0 0-.6 1.429h3.481v-.07a2.133 2.133 0 0 0-.478-1.364 1.481 1.481 0 0 0-1.185-.526zM163.856 0a3.039 3.039 0 0 1-.124-.811 2.241 2.241 0 0 1-.862.679 2.64 2.64 0 0 1-1.109.239 1.948 1.948 0 0 1-1.356-.467 1.522 1.522 0 0 1-.518-1.182 1.555 1.555 0 0 1 .706-1.343 3.394 3.394 0 0 1 1.969-.494h1.166v-.661a1.273 1.273 0 0 0-.384-.98 1.587 1.587 0 0 0-1.12-.357 1.753 1.753 0 0 0-1.112.344 1.021 1.021 0 0 0-.44.827l-.645-.005a1.5 1.5 0 0 1 .645-1.2 2.482 2.482 0 0 1 1.584-.508 2.264 2.264 0 0 1 1.533.486 1.744 1.744 0 0 1 .577 1.356v2.75a3.411 3.411 0 0 0 .177 1.262V0zm-2.02-.462a2.158 2.158 0 0 0 1.152-.312 1.833 1.833 0 0 0 .739-.833v-1.277h-1.149a2.88 2.88 0 0 0-1.5.352 1.056 1.056 0 0 0-.542.937 1.039 1.039 0 0 0 .363.811 1.366 1.366 0 0 0 .937.322zm6.929-4.8a2.4 2.4 0 0 0-.435-.038 1.57 1.57 0 0 0-1.018.336 1.839 1.839 0 0 0-.594.975V0h-.639v-5.812h.628l.011.924a1.709 1.709 0 0 1 1.638-1.031 1.057 1.057 0 0 1 .424.07zm1.627-.548.021.994a2.308 2.308 0 0 1 .816-.819 2.122 2.122 0 0 1 1.08-.282 1.743 1.743 0 0 1 1.391.526 2.374 2.374 0 0 1 .462 1.579V0h-.639v-3.819a1.776 1.776 0 0 0-.33-1.16 1.294 1.294 0 0 0-1.039-.381 1.626 1.626 0 0 0-1.055.373 2.187 2.187 0 0 0-.679 1.007V0h-.639v-5.812zm6.15 5.81h-.642v-5.812h.645zm-.757-7.49a.431.431 0 0 1 .115-.31.421.421 0 0 1 .322-.125.43.43 0 0 1 .325.125.426.426 0 0 1 .121.307.417.417 0 0 1-.121.3.435.435 0 0 1-.325.123.426.426 0 0 1-.322-.123.422.422 0 0 1-.115-.297zm3.115 1.678.021.994a2.308 2.308 0 0 1 .816-.819 2.122 2.122 0 0 1 1.08-.282 1.743 1.743 0 0 1 1.391.526 2.374 2.374 0 0 1 .462 1.579V0h-.639v-3.819a1.776 1.776 0 0 0-.33-1.16 1.294 1.294 0 0 0-1.039-.381 1.626 1.626 0 0 0-1.055.373 2.187 2.187 0 0 0-.679 1.007V0h-.639v-5.812zm5.172 2.852a3.5 3.5 0 0 1 .6-2.162 1.949 1.949 0 0 1 1.641-.8 2.021 2.021 0 0 1 1.8.945l.032-.838h.6v5.697a2.461 2.461 0 0 1-.628 1.778 2.248 2.248 0 0 1-1.7.655 2.586 2.586 0 0 1-1.157-.271 2.248 2.248 0 0 1-.867-.722l.36-.387a2.036 2.036 0 0 0 1.622.838 1.65 1.65 0 0 0 1.257-.475 1.894 1.894 0 0 0 .467-1.319v-.73a2.077 2.077 0 0 1-1.8.859 1.938 1.938 0 0 1-1.614-.808 3.51 3.51 0 0 1-.612-2.175zm.65.113a3.031 3.031 0 0 0 .446 1.754 1.442 1.442 0 0 0 1.257.642 1.718 1.718 0 0 0 1.681-1.063v-2.7a1.833 1.833 0 0 0-.65-.851 1.753 1.753 0 0 0-1.021-.293 1.459 1.459 0 0 0-1.262.636 3.239 3.239 0 0 0-.45 1.875z" transform="translate(-.988 55)" style="fill:#959595"/>
</svg>

<svg xmlns="http://www.w3.org/2000/svg" xmlns:xlink="http://www.w3.org/1999/xlink" width="189" height="38" viewBox="0 0 189 38">
  <defs>
    <clipPath id="clip-path">
      <rect id="사각형_42733" data-name="사각형 42733" width="189" height="38" fill="#194893"/>
    </clipPath>
  </defs>
  <g id="LOGO2" transform="translate(-240 -65)">
    <g id="그룹_7470" data-name="그룹 7470" transform="translate(240 65)">
      <path id="패스_8" data-name="패스 8" d="M0,0V37.284H22.77V31.113H7.29V0Z" transform="translate(0 0)" fill="#194893"/>
      <rect id="사각형_42731" data-name="사각형 42731" width="7.29" height="37.284" transform="translate(100.865 0)" fill="#194893"/>
      <g id="그룹_7469" data-name="그룹 7469" transform="translate(0 0)">
        <g id="그룹_7468" data-name="그룹 7468" transform="translate(0 0)" clip-path="url(#clip-path)">
          <path id="패스_9" data-name="패스 9" d="M460.248,31.6q7.193,0,7.306-6.806V0h-8.541V24.8q-.072,4.328-3.01,5.9a9.045,9.045,0,0,0,4.245.906" transform="translate(-278.711 0)" fill="#194893"/>
          <path id="패스_10" data-name="패스 10" d="M417.042,34.314a11.613,11.613,0,0,1-4.323-8.768c-.024-.307-.039-.624-.039-.956V0h-8.529V24.821a11.784,11.784,0,0,0,4.349,9.493q4.265,3.454,11.514,3.454a25.106,25.106,0,0,0,4.271-.343,15.444,15.444,0,0,1-7.244-3.111" transform="translate(-247.019 0)" fill="#194893"/>
          <path id="패스_11" data-name="패스 11" d="M97.407,10.418H90.313l4.331,12.945h-9.28L89.791,9.984,93,0H86.434L72.616,37.257h8.133L83.3,29.58h13.41l2.575,7.677h8.133Z" transform="translate(-44.383 0)" fill="#194893"/>
          <path id="패스_12" data-name="패스 12" d="M190.826,23.852V50.293h7.648V21.379Z" transform="translate(-116.634 -13.036)" fill="#194893"/>
          <path id="패스_13" data-name="패스 13" d="M161.973,0V6.218h11.218v.009h7.648V6.218H192.21V0Z" transform="translate(-98.999 0)" fill="#194893"/>
          <rect id="사각형_42732" data-name="사각형 42732" width="7.623" height="23.163" transform="translate(140.576)" fill="#194893"/>
          <path id="패스_14" data-name="패스 14" d="M311.183,0h-7.649V37.257h7.649V12.744l14.889,24.514h7.648l-8.474-14.093Z" transform="translate(-185.521 0)" fill="#194893"/>
        </g>
      </g>
    </g>
  </g>
</svg>
